X:655
T:
S:Från Gotlands fornsal.
R:kadrilj
O:Gotland
M:2/4
L:1/16
K:F
c2|f2fe fgfe|f2a2 c2^c2|d2d^c dedc|d4 A4|B2BA BcBA|B2dc BAGF|E2G2 C2DE|F4
z2::c2|b3a bagf|f2e2 e3c|f3c fac'a|g2g2g2 c2|b3a bagf|f2e2 e3c|f3c
fcAF|G2G2G2 :: c2|f6 d2|c6 Ac|B2A2G2B2|AGAB c2c2|f6 d2|c6 Ac|B2A2B2G2|F4
z2::a2|b2cc c2b2|a2cc c2a2|a2c'2b2a2|g4 z2 c2|f6 ed |c6Ac|B2A2B2G2|F4 z2:|

